X: 10251
T: Doc Richardson's
R: jig
M: 6/8
K: Dmajor
ccc cAB|caf e2f|gBB Bcd|efe cAB|
ccc cAB|caf e2f|gBB fed|cAA A2B|
ccc cAB|caf e2f|gBB Bcd|efe cAB|
ccc cAB|caf e2f|gBB Bcd|eaa agf||
gBB Bag|fAA Agf|eGG GBd|efe cAf|
gBB Bag|fAA A2f|gBB Bcd|eaa agf|
gBB Bag|fAA Agf|eGG GBd|efe cAf|
gBB Bag|fAA A2f|gBB fed|cAA A2B||

